src/images/rocketbelt.svg

<?xml version="1.0" encoding="UTF-8"?>
<svg width="209px" height="246px" viewBox="0 0 209 246" version="1.1" xmlns="http://www.w3.org/2000/svg" xmlns:xlink="http://www.w3.org/1999/xlink">
    <!-- Generator: Sketch 62 (91390) - https://sketch.com -->
    <title>Artboard Copy 19</title>
    <desc>Created with Sketch.</desc>
    <defs>
        <path d="M75.5998821,232.824568 L132.415539,232.824568 L132.415539,229.787726 L144.590322,229.787726 L144.590322,240.928888 C144.590322,242.042397 143.678228,242.947385 142.553075,242.947385 L134.4538,242.947385 C133.332643,242.950738 132.420571,242.047514 132.415539,240.928888 L132.415539,236.873691 L75.5998821,236.873691 L75.5998821,240.928888 C75.5998821,242.042397 74.6877879,242.947385 73.562635,242.947385 L65.4633602,242.947385 C64.3422033,242.950738 63.4301312,242.047514 63.4250985,240.928888 L63.4250985,229.787726 L75.5998821,229.787726 L75.5998821,232.824568 Z M35.0172703,57.7000017 L64.9469465,57.7000017 L64.9469465,59.6777159 C64.9469465,61.9398578 66.7807748,63.7736861 69.0429167,63.7736861 L142.0162,63.7736861 C144.278342,63.7736861 146.11217,61.9398578 146.11217,59.6777159 L146.11217,57.7000017 L146.11217,57.7000017 L172.99815,57.7000017 L172.99815,172.087724 L35.0172703,172.087724 L35.0172703,57.7000017 Z M69.5124903,226.750884 C53.255096,226.750884 39.6233967,215.530764 35.9760345,200.431585 L103.048946,200.431585 C99.4036131,215.531777 85.7749574,226.750884 69.5124903,226.750884 Z M104.967489,200.431585 C108.614851,215.530764 122.245536,226.750884 138.50293,226.750884 C154.765398,226.750884 168.394053,215.531777 172.040401,200.431585 L104.967489,200.431585 Z M69.5124903,0 C52.1786422,0 37.8357327,12.7476513 35.3875866,29.3561412 L64.4406784,29.3561412 L64.4406784,25.3039815 C64.4423559,24.1878231 65.3491018,23.2835717 66.4677799,23.2824568 L102.166274,23.2824568 C97.5286964,9.7401652 84.6609647,0 69.5124903,0 Z M138.50293,0 C155.833735,0 170.179688,12.7496758 172.629863,29.3561412 L145.604887,29.3561412 L145.604887,25.3039815 C145.605157,24.7677575 145.391781,24.2534186 145.011758,23.8742509 C144.631734,23.4950833 144.116235,23.2821881 143.578801,23.2824568 L105.851176,23.2824568 C110.486724,9.73915292 123.352427,0 138.50293,0 Z M32.4656385,175.139164 L176.533911,175.139164 C177.094239,175.139164 177.548476,175.592377 177.548476,176.151444 L177.548476,196.397059 C177.548476,196.956126 177.094239,197.40934 176.533911,197.40934 L32.4656385,197.40934 C31.9053096,197.40934 31.4510732,196.956126 31.4510732,196.397059 L31.4510732,176.151444 C31.4510732,175.592377 31.9053096,175.139164 32.4656385,175.139164 Z M1.13180395,223.817892 C-1.41475494,210.860699 1.13180395,197.410525 1.13180395,197.410525 L23.2696187,197.410525 C23.2696187,197.410525 25.698488,211.213985 23.2696187,223.817892 C21.0264148,235.471268 13.9893899,246 12.2291192,246 C10.5297223,246 3.33543977,235.028901 1.13180395,223.817892 Z M12.164187,221.555936 C13.0387423,221.555936 16.5359488,216.323457 17.6509561,210.532199 C18.8582888,204.269218 17.6509561,197.410004 17.6509561,197.410004 L6.6500246,197.410004 C6.6500246,197.410004 5.38384711,204.094093 6.6500246,210.532199 C7.74575511,216.103792 11.3200687,221.555936 12.164187,221.555936 Z M185.782688,223.817892 C183.236129,210.860699 185.782688,197.410525 185.782688,197.410525 L207.920503,197.410525 C207.920503,197.410525 210.349372,211.213985 207.920503,223.817892 C205.676284,235.471268 198.639259,246 196.878988,246 C195.180606,246 187.986324,235.028901 185.782688,223.817892 Z M196.815071,221.555936 C195.970952,221.555936 192.395624,216.103792 191.300908,210.532199 C190.034731,204.094093 191.300908,197.410004 191.300908,197.410004 L202.30184,197.410004 C202.30184,197.410004 203.509173,204.269218 202.30184,210.532199 C201.185818,216.323457 197.689626,221.555936 196.815071,221.555936 Z M0.991793941,194.380614 L8.70249019,40.5038195 C8.92569455,36.0447229 12.7435038,32.4156964 17.2288969,32.4156964 L64.9469465,32.4156964 L64.9510047,54.6858725 L33.4893349,54.6858725 C32.3651966,54.6858725 31.3993304,55.5938884 31.3333837,56.7144831 L23.3345509,194.380614 L0.991793941,194.380614 Z M146.11217,32.4156964 L191.747317,32.4156964 C196.227637,32.4156964 200.049505,36.0366246 200.273724,40.5038195 L207.98442,194.380614 L185.663984,194.380614 L177.666165,56.7144831 C177.586468,55.5813639 176.648609,54.6988989 175.510214,54.6858725 L146.11217,54.6858725 L146.11217,32.4156964 Z M67.9754229,28.871817 C67.9754229,28.3346945 68.1882913,27.8193726 68.568666,27.4392848 C68.9490408,27.0591971 69.4652051,26.8452309 70.0035399,26.8452309 L141.026154,26.8452309 C142.146234,26.8452309 143.053256,27.7562836 143.053256,28.871817 L143.053256,58.2239091 C143.053256,59.341467 142.146234,60.2484705 141.026154,60.2504951 L70.0035399,60.2504951 C68.8834598,60.2504951 67.9754229,59.3394424 67.9754229,58.2239091 L67.9754229,28.871817 Z" id="path-1"></path>
        <filter x="-8.9%" y="-7.1%" width="117.7%" height="115.0%" filterUnits="objectBoundingBox" id="filter-2">
            <feOffset dx="0" dy="1" in="SourceAlpha" result="shadowOffsetOuter1"></feOffset>
            <feGaussianBlur stdDeviation="6" in="shadowOffsetOuter1" result="shadowBlurOuter1"></feGaussianBlur>
            <feColorMatrix values="0 0 0 0 0   0 0 0 0 0   0 0 0 0 0  0 0 0 0.12 0" type="matrix" in="shadowBlurOuter1"></feColorMatrix>
        </filter>
    </defs>
    <g id="Artboard-Copy-19" stroke="none" stroke-width="1" fill="none" fill-rule="evenodd">
        <g id="Shape-Copy">
            <use fill="black" fill-opacity="1" filter="url(#filter-2)" xlink:href="#path-1"></use>
            <use fill="#001E5D" fill-rule="evenodd" xlink:href="#path-1"></use>
        </g>
    </g>
</svg>

<svg width="209" height="246" viewBox="0 0 209 246" xmlns="http://www.w3.org/2000/svg" xmlns:xlink="http://www.w3.org/1999/xlink">
  <defs>
    <filter x="-8.9%" y="-7.1%" width="117.7%" height="115%" filterUnits="objectBoundingBox" id="a">
      <feOffset dy="1" in="SourceAlpha" result="shadowOffsetOuter1"/>
      <feGaussianBlur stdDeviation="6" in="shadowOffsetOuter1" result="shadowBlurOuter1"/>
      <feColorMatrix values="0 0 0 0 0 0 0 0 0 0 0 0 0 0 0 0 0 0 0.12 0" in="shadowBlurOuter1"/>
    </filter>
    <path d="M75.6 232.825h56.816v-3.037h12.174v11.14a2.029 2.029 0 01-2.037 2.02h-8.1a2.03 2.03 0 01-2.037-2.02v-4.054H75.6v4.055a2.029 2.029 0 01-2.037 2.018h-8.1a2.03 2.03 0 01-2.038-2.018v-11.141H75.6v3.037zM35.017 57.7h29.93v1.978a4.096 4.096 0 004.096 4.096h72.973a4.096 4.096 0 004.096-4.096V57.7h26.886v114.388H35.018V57.7zm34.495 169.05c-16.257 0-29.889-11.22-33.536-26.318h67.073c-3.645 15.1-17.274 26.319-33.537 26.319zm35.455-26.318c3.648 15.099 17.279 26.319 33.536 26.319 16.262 0 29.891-11.22 33.537-26.32h-67.073zM69.512 0C52.18 0 37.836 12.748 35.388 29.356H64.44v-4.052a2.027 2.027 0 012.027-2.022h35.698C97.53 9.74 84.661 0 69.512 0zm68.99 0c17.332 0 31.678 12.75 34.128 29.356h-27.025v-4.052c0-.536-.213-1.05-.593-1.43a2.027 2.027 0 00-1.433-.592H105.85C110.487 9.74 123.352 0 138.503 0zM32.467 175.14h144.068c.56 0 1.014.452 1.014 1.011v20.246c0 .56-.454 1.012-1.014 1.012H32.466c-.56 0-1.015-.453-1.015-1.012v-20.246c0-.559.454-1.012 1.015-1.012zM1.132 223.817c-2.547-12.957 0-26.407 0-26.407H23.27s2.428 13.803 0 26.407C21.026 235.47 13.99 246 12.23 246c-1.7 0-8.895-10.971-11.098-22.182zm11.032-2.262c.875 0 4.372-5.233 5.487-11.024 1.207-6.263 0-13.122 0-13.122H6.65s-1.266 6.684 0 13.122c1.096 5.572 4.67 11.024 5.514 11.024zm173.619 2.262c-2.547-12.957 0-26.407 0-26.407h22.138s2.428 13.803 0 26.407C205.676 235.47 198.639 246 196.879 246c-1.698 0-8.893-10.971-11.096-22.182zm11.032-2.262c-.844 0-4.42-5.452-5.514-11.024-1.266-6.438 0-13.122 0-13.122h11s1.208 6.86 0 13.122c-1.115 5.791-4.611 11.024-5.486 11.024zM.992 194.38l7.71-153.877c.224-4.46 4.042-8.088 8.527-8.088h47.718l.004 22.27H33.489c-1.124 0-2.09.908-2.156 2.028l-7.998 137.667H.992zm145.12-161.965h45.635c4.48 0 8.303 3.62 8.527 8.088l7.71 153.877h-22.32l-7.998-137.667a2.184 2.184 0 00-2.156-2.028h-29.398v-22.27zm-78.137-3.544a2.025 2.025 0 012.029-2.027h71.022c1.12 0 2.027.911 2.027 2.027v29.352a2.029 2.029 0 01-2.027 2.026H70.004a2.03 2.03 0 01-2.029-2.026V28.872z" id="b"/>
  </defs>
  <g fill="none" fill-rule="evenodd">
    <use fill="#000" filter="url(#a)" xlink:href="#b"/>
    <use fill="#001E5D" xlink:href="#b"/>
  </g>
</svg>
